raw/hero/blank.svg

<svg width="220" height="160" viewBox="0 0 220 160" fill="none" xmlns="http://www.w3.org/2000/svg">
<rect x="63" y="34.0001" width="94" height="110" rx="12" fill="url(#paint0_linear_726_1880)"/>
<mask id="mask0_726_1880" style="mask-type:alpha" maskUnits="userSpaceOnUse" x="63" y="34" width="94" height="111">
<rect x="62.9999" y="34.0002" width="94" height="110" rx="12" fill="url(#paint1_linear_726_1880)"/>
</mask>
<g mask="url(#mask0_726_1880)">
<rect x="72.4583" y="41.4586" width="75.0833" height="94.0833" fill="url(#paint2_linear_726_1880)" stroke="white" stroke-width="0.916667"/>
<rect x="34.9999" y="44" width="70" height="17" rx="6" fill="url(#paint3_linear_726_1880)"/>
<path opacity="0.8" d="M144.501 103.213C147.936 97.6191 156.064 97.6191 159.499 103.213L178.769 134.595C182.369 140.459 178.15 148 171.27 148H132.73C125.849 148 121.631 140.459 125.231 134.595L144.501 103.213Z" fill="url(#paint4_linear_726_1880)"/>
</g>
<path d="M148.866 111.492C151.2 107.631 156.8 107.631 159.134 111.492L174.495 136.896C176.913 140.894 174.033 146 169.361 146H138.639C133.967 146 131.087 140.894 133.505 136.896L148.866 111.492Z" fill="#0066FF"/>
<path fill-rule="evenodd" clip-rule="evenodd" d="M152.4 118C151.769 118 151.267 118.53 151.302 119.161L151.79 128.049L152.72 132.745C152.822 133.26 153.274 133.632 153.799 133.632H154.201C154.727 133.632 155.179 133.26 155.281 132.745L156.21 128.049L156.699 119.161C156.733 118.53 156.232 118 155.6 118H152.4ZM152.798 135.103C152.19 135.103 151.698 135.595 151.698 136.203V138.6C151.698 139.208 152.19 139.7 152.798 139.7H155.201C155.809 139.7 156.301 139.208 156.301 138.6V136.203C156.301 135.595 155.809 135.103 155.201 135.103H152.798Z" fill="url(#paint5_linear_726_1880)"/>
<path d="M104.276 34.9501C105.953 34.0603 107.32 32.6144 108.1 30.7958C108.816 29.1249 111.184 29.1249 111.9 30.7958C112.68 32.6144 114.047 34.0603 115.724 34.9501H104.276Z" stroke="url(#paint6_linear_726_1880)" stroke-width="12.1"/>
<mask id="mask1_726_1880" style="mask-type:alpha" maskUnits="userSpaceOnUse" x="91" y="23" width="38" height="19">
<path d="M104.276 34.9501C105.953 34.0603 107.32 32.6144 108.1 30.7958C108.816 29.1249 111.184 29.1249 111.9 30.7958C112.68 32.6144 114.047 34.0603 115.724 34.9501H104.276Z" stroke="url(#paint7_linear_726_1880)" stroke-width="12.1"/>
</mask>
<g mask="url(#mask1_726_1880)">
<rect opacity="0.4" x="75.5625" y="32.4816" width="62.6875" height="12.8889" fill="url(#paint8_linear_726_1880)"/>
</g>
<circle cx="110" cy="28.2001" r="2.2" fill="#757B94"/>
<rect x="32.6" y="40.6001" width="66.8" height="14.8" rx="5.4" fill="#EBEDF5" fill-opacity="0.6" stroke="#282C33" stroke-width="1.2"/>
<path fill-rule="evenodd" clip-rule="evenodd" d="M88.3 50.3001C89.5703 50.3001 90.6 49.2703 90.6 48.0001C90.6 46.7298 89.5703 45.7001 88.3 45.7001C87.0297 45.7001 86 46.7298 86 48.0001C86 49.2703 87.0297 50.3001 88.3 50.3001ZM46.6 48.0001C46.6 49.2704 45.5703 50.3001 44.3 50.3001C43.0297 50.3001 42 49.2704 42 48.0001C42 46.7299 43.0297 45.7001 44.3 45.7001C45.5703 45.7001 46.6 46.7299 46.6 48.0001ZM57.6 48.0001C57.6 49.2704 56.5703 50.3001 55.3 50.3001C54.0297 50.3001 53 49.2704 53 48.0001C53 46.7299 54.0297 45.7001 55.3 45.7001C56.5703 45.7001 57.6 46.7299 57.6 48.0001ZM66.3 50.3001C67.5703 50.3001 68.6 49.2704 68.6 48.0001C68.6 46.7299 67.5703 45.7001 66.3 45.7001C65.0297 45.7001 64 46.7299 64 48.0001C64 49.2704 65.0297 50.3001 66.3 50.3001ZM79.6 48.0001C79.6 49.2704 78.5703 50.3001 77.3 50.3001C76.0297 50.3001 75 49.2704 75 48.0001C75 46.7299 76.0297 45.7001 77.3 45.7001C78.5703 45.7001 79.6 46.7299 79.6 48.0001Z" fill="#0066FF"/>
<path d="M86 59.0001H118L134 73.1716V123H86V59.0001Z" fill="#BFD9FF"/>
<path fill-rule="evenodd" clip-rule="evenodd" d="M119.524 60.3498L118 59.0001H115.714V61.0001H117.242L118.198 61.847L119.524 60.3498ZM134 75.5443H132V74.0718L131.15 73.3191L132.476 71.8219L134 73.1716V75.5443ZM130.19 69.7974L128.864 71.2946L125.817 68.5953L127.143 67.0981L130.19 69.7974ZM124.857 65.0736L123.531 66.5708L120.483 63.8714L121.81 62.3743L124.857 65.0736ZM134 79.1035H132V83.8491H134V79.1035ZM134 87.4083H132V92.1539H134V87.4083ZM134 95.713H132V100.459H134V95.713ZM134 104.018H132V108.763H134V104.018ZM134 112.323H132V117.068H134V112.323ZM134 120.627H132V121H131.714V123H134V120.627ZM128.286 123V121H123.714V123H128.286ZM120.286 123V121H115.714V123H120.286ZM112.286 123V121H107.714V123H112.286ZM104.286 123V121H99.7143V123H104.286ZM96.2857 123V121H91.7143V123H96.2857ZM88.2857 123V121H88V120.714H86V123H88.2857ZM86 117.286H88V112.714H86V117.286ZM86 109.286H88V104.714H86V109.286ZM86 101.286H88V96.7144H86V101.286ZM86 93.2858H88V88.7144H86V93.2858ZM86 85.2858H88V80.7144H86V85.2858ZM86 77.2858H88V72.7144H86V77.2858ZM86 69.2858H88V64.7144H86V69.2858ZM86 61.2858H88V61.0001H88.2857V59.0001H86V61.2858ZM91.7143 59.0001V61.0001H96.2857V59.0001H91.7143ZM99.7143 59.0001V61.0001H104.286V59.0001H99.7143ZM107.714 59.0001V61.0001H112.286V59.0001H107.714Z" fill="#0066FF"/>
<path d="M166.709 47.8803C166.149 46.8868 165.342 44.7609 166.593 44.2053C168.156 43.511 170.314 49.0741 171.877 48.3797C173.441 47.6853 170.921 43.2147 172.484 42.5203C173.735 41.9648 176.528 45.0718 177.769 46.6947" stroke="#D3D9E6" stroke-width="1.8"/>
<path d="M161.75 35.8698C159.737 32.6279 156.671 27.4678 158.929 26.3392C161.186 25.2106 166.282 34.1281 168.522 31.9195C170.762 29.7109 161.186 24.0191 163.443 21.7618C165.7 19.5046 170.844 27.8252 172.697 26.3391C174.549 24.853 168.086 16.7921 168.086 16.7921" stroke="#D3D9E6" stroke-width="1.8"/>
<path d="M145.224 29.5673C146.344 29.6509 148.61 29.482 148.71 28.1374C148.836 26.4567 142.891 26.8581 143.016 25.1774C143.141 23.4967 148.183 23.8731 148.309 22.1923C148.409 20.8478 143.103 21.4448 142.614 19.2324C142.126 17.0199 148.749 16.1293 148.749 16.1293" stroke="#D3D9E6" stroke-width="1.8"/>
<defs>
<linearGradient id="paint0_linear_726_1880" x1="63" y1="34.0001" x2="157" y2="34.0001" gradientUnits="userSpaceOnUse">
<stop stop-color="#CFD4E6"/>
<stop offset="1" stop-color="#DBE0F0"/>
</linearGradient>
<linearGradient id="paint1_linear_726_1880" x1="62.9999" y1="34.0002" x2="157" y2="34.0002" gradientUnits="userSpaceOnUse">
<stop stop-color="#C0C5D8"/>
<stop offset="1" stop-color="#EBF0FB"/>
</linearGradient>
<linearGradient id="paint2_linear_726_1880" x1="71.9999" y1="41.0002" x2="148" y2="41.0002" gradientUnits="userSpaceOnUse">
<stop stop-color="#CFD4E4"/>
<stop offset="1" stop-color="#DBE1F2"/>
</linearGradient>
<linearGradient id="paint3_linear_726_1880" x1="63.9999" y1="50" x2="104.34" y2="59.6923" gradientUnits="userSpaceOnUse">
<stop stop-color="#BBC0D5"/>
<stop offset="1" stop-color="#CDD3E4"/>
</linearGradient>
<linearGradient id="paint4_linear_726_1880" x1="123.319" y1="140.271" x2="149.005" y2="135.33" gradientUnits="userSpaceOnUse">
<stop stop-color="#B6BDD2"/>
<stop offset="1" stop-color="#D7DDEC"/>
</linearGradient>
<linearGradient id="paint5_linear_726_1880" x1="152.945" y1="121.498" x2="162.037" y2="124.815" gradientUnits="userSpaceOnUse">
<stop offset="0.0198017" stop-color="white"/>
<stop offset="1" stop-color="white" stop-opacity="0.55"/>
</linearGradient>
<linearGradient id="paint6_linear_726_1880" x1="91.5" y1="30.2501" x2="128.5" y2="30.2501" gradientUnits="userSpaceOnUse">
<stop stop-color="#CBD1E7"/>
<stop offset="1" stop-color="#DDE3F1"/>
</linearGradient>
<linearGradient id="paint7_linear_726_1880" x1="91.5" y1="30.2501" x2="128.5" y2="30.2501" gradientUnits="userSpaceOnUse">
<stop stop-color="#BEC2D0"/>
<stop offset="1" stop-color="#DBE0F1"/>
</linearGradient>
<linearGradient id="paint8_linear_726_1880" x1="106.906" y1="32.4816" x2="106.906" y2="45.3705" gradientUnits="userSpaceOnUse">
<stop stop-color="#868FAE" stop-opacity="0"/>
<stop offset="1" stop-color="#61677C"/>
</linearGradient>
</defs>
</svg>

<svg width="220" height="160" viewBox="0 0 220 160" fill="none" xmlns="http://www.w3.org/2000/svg"><rect x="63" y="34" width="94" height="110" rx="12" fill="url(#paint0_linear_726_1880)"/><mask id="mask0_726_1880" style="mask-type:alpha" maskUnits="userSpaceOnUse" x="63" y="34" width="94" height="111"><rect x="63" y="34" width="94" height="110" rx="12" fill="url(#paint1_linear_726_1880)"/></mask><g mask="url(#mask0_726_1880)"><path fill="url(#paint2_linear_726_1880)" stroke="#fff" stroke-width=".917" d="M72.458 41.459H147.541V135.542H72.458z"/><rect x="35" y="44" width="70" height="17" rx="6" fill="url(#paint3_linear_726_1880)"/><path opacity=".8" d="M144.501 103.213c3.435-5.594 11.563-5.594 14.998 0l19.27 31.382c3.6 5.864-.619 13.405-7.499 13.405h-38.54c-6.881 0-11.099-7.541-7.499-13.405l19.27-31.382z" fill="url(#paint4_linear_726_1880)"/></g><path d="M148.866 111.492c2.334-3.861 7.934-3.861 10.268 0l15.361 25.404c2.418 3.998-.462 9.104-5.134 9.104h-30.722c-4.672 0-7.552-5.106-5.134-9.104l15.361-25.404z" fill="#06F"/><path fill-rule="evenodd" clip-rule="evenodd" d="M152.4 118a1.1 1.1 0 0 0-1.098 1.161l.488 8.888.93 4.696a1.1 1.1 0 0 0 1.079.887h.402c.526 0 .978-.372 1.08-.887l.929-4.696.489-8.888A1.1 1.1 0 0 0 155.6 118h-3.2zm.398 17.103a1.1 1.1 0 0 0-1.1 1.1v2.397a1.1 1.1 0 0 0 1.1 1.1h2.403a1.1 1.1 0 0 0 1.1-1.1v-2.397a1.1 1.1 0 0 0-1.1-1.1h-2.403z" fill="url(#paint5_linear_726_1880)"/><path d="M104.276 34.95a8.485 8.485 0 0 0 3.824-4.154c.716-1.671 3.084-1.671 3.8 0a8.485 8.485 0 0 0 3.824 4.154h-11.448z" stroke="url(#paint6_linear_726_1880)" stroke-width="12.1"/><mask id="mask1_726_1880" style="mask-type:alpha" maskUnits="userSpaceOnUse" x="91" y="23" width="38" height="19"><path d="M104.276 34.95a8.485 8.485 0 0 0 3.824-4.154c.716-1.671 3.084-1.671 3.8 0a8.485 8.485 0 0 0 3.824 4.154h-11.448z" stroke="url(#paint7_linear_726_1880)" stroke-width="12.1"/></mask><g mask="url(#mask1_726_1880)"><path opacity=".4" fill="url(#paint8_linear_726_1880)" d="M75.563 32.482H138.251V45.370999999999995H75.563z"/></g><circle cx="110" cy="28.2" r="2.2" fill="#757B94"/><rect x="32.6" y="40.6" width="66.8" height="14.8" rx="5.4" fill="#EBEDF5" fill-opacity=".6" stroke="#282C33" stroke-width="1.2"/><path fill-rule="evenodd" clip-rule="evenodd" d="M88.3 50.3a2.3 2.3 0 1 0 0-4.6 2.3 2.3 0 0 0 0 4.6zM46.6 48a2.3 2.3 0 1 1-4.6 0 2.3 2.3 0 0 1 4.6 0zm11 0a2.3 2.3 0 1 1-4.6 0 2.3 2.3 0 0 1 4.6 0zm8.7 2.3a2.3 2.3 0 1 0 0-4.6 2.3 2.3 0 0 0 0 4.6zM79.6 48a2.3 2.3 0 1 1-4.6 0 2.3 2.3 0 0 1 4.6 0z" fill="#06F"/><path d="M86 59h32l16 14.172V123H86V59z" fill="#BFD9FF"/><path fill-rule="evenodd" clip-rule="evenodd" d="M119.524 60.35 118 59h-2.286v2h1.528l.956.847 1.326-1.497zM134 75.544h-2v-1.472l-.85-.753 1.326-1.497 1.524 1.35v2.372zm-3.81-5.747-1.326 1.498-3.047-2.7 1.326-1.497 3.047 2.7zm-5.333-4.723-1.326 1.497-3.048-2.7 1.327-1.497 3.047 2.7zM134 79.104h-2v4.745h2v-4.746zm0 8.304h-2v4.746h2v-4.746zm0 8.305h-2v4.746h2v-4.746zm0 8.305h-2v4.745h2v-4.745zm0 8.305h-2v4.745h2v-4.745zm0 8.304h-2V121h-.286v2H134v-2.373zM128.286 123v-2h-4.572v2h4.572zm-8 0v-2h-4.572v2h4.572zm-8 0v-2h-4.572v2h4.572zm-8 0v-2h-4.572v2h4.572zm-8 0v-2h-4.572v2h4.572zm-8 0v-2H88v-.286h-2V123h2.286zM86 117.286h2v-4.572h-2v4.572zm0-8h2v-4.572h-2v4.572zm0-8h2v-4.572h-2v4.572zm0-8h2v-4.572h-2v4.572zm0-8h2v-4.572h-2v4.572zm0-8h2v-4.572h-2v4.572zm0-8h2v-4.572h-2v4.572zm0-8h2V61h.286v-2H86v2.286zM91.714 59v2h4.572v-2h-4.572zm8 0v2h4.572v-2h-4.572zm8 0v2h4.572v-2h-4.572z" fill="#06F"/><path d="M166.709 47.88c-.56-.993-1.367-3.12-.116-3.675 1.563-.694 3.721 4.87 5.284 4.175 1.564-.695-.956-5.165.607-5.86 1.251-.555 4.044 2.552 5.285 4.175M161.75 35.87c-2.013-3.242-5.079-8.402-2.821-9.53 2.257-1.13 7.353 7.788 9.593 5.58 2.24-2.21-7.336-7.9-5.079-10.158 2.257-2.257 7.401 6.063 9.254 4.577 1.852-1.486-4.611-9.547-4.611-9.547M145.224 29.567c1.12.084 3.386-.085 3.486-1.43.126-1.68-5.819-1.279-5.694-2.96.125-1.68 5.167-1.304 5.293-2.985.1-1.344-5.206-.747-5.695-2.96-.488-2.212 6.135-3.103 6.135-3.103" stroke="#D3D9E6" stroke-width="1.8"/><defs><linearGradient id="paint0_linear_726_1880" x1="63" y1="34" x2="157" y2="34" gradientUnits="userSpaceOnUse"><stop stop-color="#CFD4E6"/><stop offset="1" stop-color="#DBE0F0"/></linearGradient><linearGradient id="paint1_linear_726_1880" x1="63" y1="34" x2="157" y2="34" gradientUnits="userSpaceOnUse"><stop stop-color="#C0C5D8"/><stop offset="1" stop-color="#EBF0FB"/></linearGradient><linearGradient id="paint2_linear_726_1880" x1="72" y1="41" x2="148" y2="41" gradientUnits="userSpaceOnUse"><stop stop-color="#CFD4E4"/><stop offset="1" stop-color="#DBE1F2"/></linearGradient><linearGradient id="paint3_linear_726_1880" x1="64" y1="50" x2="104.34" y2="59.692" gradientUnits="userSpaceOnUse"><stop stop-color="#BBC0D5"/><stop offset="1" stop-color="#CDD3E4"/></linearGradient><linearGradient id="paint4_linear_726_1880" x1="123.319" y1="140.271" x2="149.005" y2="135.33" gradientUnits="userSpaceOnUse"><stop stop-color="#B6BDD2"/><stop offset="1" stop-color="#D7DDEC"/></linearGradient><linearGradient id="paint5_linear_726_1880" x1="152.945" y1="121.498" x2="162.037" y2="124.815" gradientUnits="userSpaceOnUse"><stop offset=".02" stop-color="#fff"/><stop offset="1" stop-color="#fff" stop-opacity=".55"/></linearGradient><linearGradient id="paint6_linear_726_1880" x1="91.5" y1="30.25" x2="128.5" y2="30.25" gradientUnits="userSpaceOnUse"><stop stop-color="#CBD1E7"/><stop offset="1" stop-color="#DDE3F1"/></linearGradient><linearGradient id="paint7_linear_726_1880" x1="91.5" y1="30.25" x2="128.5" y2="30.25" gradientUnits="userSpaceOnUse"><stop stop-color="#BEC2D0"/><stop offset="1" stop-color="#DBE0F1"/></linearGradient><linearGradient id="paint8_linear_726_1880" x1="106.906" y1="32.482" x2="106.906" y2="45.37" gradientUnits="userSpaceOnUse"><stop stop-color="#868FAE" stop-opacity="0"/><stop offset="1" stop-color="#61677C"/></linearGradient></defs></svg>
